X:1
T:Title
%%score { ( 1 3 4 ) | ( 2 5 ) }
L:1/8
M:3/4
K:D
V:1 treble nm="Grand Piano"
V:3 treble 
V:4 treble 
V:2 bass 
V:5 bass 
V:1
 z6[Q:1/4=134] | [DF]4 E2 | D4 z2 | D2 E2 =F2 | [DF]4 [DF]2 | z2 z2 F2 | [DF]2 [A,=F]2 [A,^F]2 | %7
 z2 z2 G2 | [EG]4 z2 | z2 z2 E2 | z2 z2 E2 | z2 z2 F2 | z2 z2 B2 | [FA]4 [B,DG]2 | z2 z2 A2 | %15
 [EG]4 z2 | z2 z2 G2 | [DF]4 [G,A,CE]2 | D4 z2 | [DF]4 [G,A,CE]2 | D4 z2 | [=FA]4 D2 | [=FA]4 D2 | %23
 [=FA]4 z2 | [DG]4 [DG]2 | [DG]4 [DG]2 | [DG]4 A2 | z2 z2 =c2 | [=FA]4 F2 | [D=F]4 [DF]2 | %30
 [D=F]4 [DF]2 | [D=F]4 z2 | z2 z2 E2 | ^A2 =A2 G2 | =F2 E2 D2 | C2 B,2 C2 |[M:2/4] D4 |] %37
V:2
 z2 z2 A2 | D,F, A,2 F,2 | D,2 F,4 | D,2 [F,A,]4 | D,F, A,2 F,2 | D,2 z2 D2 | D,2 =F,2 F,2 | %7
 C,2 z2 E2 | C,2 z2 E2 | z2 G,4 | C,2 z2 C2 | z2 G,4 | C,2 z2 G2 | D,F, A,2 G,2 | D,2 z2 D2 | %15
 C,E, z2 F2 | C,2 z2 C2 | D,F, A,2 C,2 | D,2 F,2 C,2 | D,F, A,2 C,2 | D,2 z2 D2 | D,=F, A,2 F,2 | %22
 D,=F, A,2 F,2 | D,2 z2[K:treble] ^A2 | D,G, ^A,2 G,2 | D,G, ^A,2 G,2 | D,G, ^A,2 G,2 | D,2 z2 G2 | %28
 D,=F, A,2 F,2 | D,=F, A,2 F,2 | D,=F, A,2 F,2 | D,2 z2 G2 | C,2 z2 C2 | %33
 [D,D]2 [=F,A,D]2 [G,^A,D]2 | [D,D]2 [G,A,]2 [=F,A,]2 | C,2 [E,G,A,]4 |[M:2/4] [D,=F,A,]4 |] %37
V:3
 x6 | x6 | z2 B,4 | x6 | x6 | [DF]4 z2 | x6 | [EA]4 z2 | z2 [G,A,]4 | [CE]4 z2 | [CE]4 z2 | %11
 [CE]4 z2 | [EG]4 z2 | x6 | [DF]4 z2 | z2 A,4 | [CE]4 z2 | x6 | z2 A,2 [G,A,C]2 | x6 | z2 A,4 | %21
 x6 | x6 | z2 A,4 | x6 | x6 | x6 | [G^A]4 z2 | x6 | x6 | x6 | z2 A,4 | [CE]4 z2 | x6 | x6 | x6 | %36
[M:2/4] x4 |] %37
V:4
 x6 | x6 | z2 z2 A,2 | x6 | x6 | z2 A,4 | x6 | z2 [G,A,]4 | x6 | z2 A,4 | z2 [G,A,]4 | z2 A,4 | %12
 z2 [G,A,]4 | x6 | z2 A,4 | x6 | z2 [G,A,]4 | x6 | x6 | x6 | x6 | x6 | x6 | x6 | x6 | x6 | x6 | %27
 z2 ^A,4 | x6 | x6 | x6 | x6 | z2 [G,A,]4 | x6 | x6 | x6 |[M:2/4] x4 |] %37
V:5
 x6 | x6 | x6 | x6 | x6 | z2 F,4 | x6 | z2 E,4 | z2 E,4 | C,E, z2 C2 | z2 E,4 | C,E, z2 D2 | %12
 z2 E,4 | x6 | z2 F,4 | z2 G,4 | z2 E,4 | x6 | x6 | x6 | z2 F,4 | x6 | x6 | z2 =F,4[K:treble] | %24
 x6 | x6 | x6 | z2 G,4 | x6 | x6 | x6 | z2 =F,4 | z2 E,4 | x6 | x6 | x6 |[M:2/4] x4 |] %37

